assets/icons/line-cross.svg

<svg xmlns="http://www.w3.org/2000/svg" viewBox="0 0 24 24" role="presentation" aria-hidden="true"><rect width="24" height="24" rx="1" fill="#E3E6EB"/> <path d="M6.68601 7.5991C6.438 7.34767 6.438 6.94001 6.68601 6.68858C6.93402 6.43714 7.33612 6.43714 7.58413 6.68858L12 11.1654L16.4158 6.6886C16.6639 6.43716 17.066 6.43716 17.314 6.68859C17.562 6.94003 17.562 7.34768 17.314 7.59912L12.8981 12.0759L17.1641 16.4008C17.4121 16.6523 17.4121 17.0599 17.1641 17.3114C16.9161 17.5628 16.514 17.5628 16.266 17.3114L12 12.9865L7.73398 17.3114C7.48597 17.5628 7.08387 17.5628 6.83586 17.3114C6.58785 17.0599 6.58785 16.6523 6.83586 16.4009L11.1019 12.0759L6.68601 7.5991Z" fill="currentColor"/></svg>

<svg xmlns="http://www.w3.org/2000/svg" aria-hidden="true" viewBox="0 0 24 24"><rect width="24" height="24" fill="#e3e6eb" rx="1"/><path fill="currentColor" d="M6.686 7.6a.65.65 0 0 1 0-.911.63.63 0 0 1 .898 0L12 11.165l4.416-4.476a.63.63 0 0 1 .898 0 .65.65 0 0 1 0 .91l-4.416 4.477 4.266 4.325a.65.65 0 0 1 0 .91.63.63 0 0 1-.898 0L12 12.987 7.734 17.31a.63.63 0 0 1-.898 0 .65.65 0 0 1 0-.91l4.266-4.325z"/></svg>
